X:14
T:14. Smash the Windows
M:6/8
L:1/8
Q:3/8=120
Z:Peter Dunk, VMP, 2011
K:Eb
E | B,2 E G2 B | e2 g fdB | c2 e A2 c | B2 c BGE |  B,2 E G2 B | e2 g fdB | gbg afd | e2 z z2 :|!
|:g/a/ | b2 g e2 B | B2 g bag | a2 f d2 B | B2 f agf | g2 e a2 f | b2 g c'2 f | gbg afd | e2 z z2 :|!

